hook/res/status_stopped.svg

<?xml version="1.0" encoding="UTF-8"?>
<svg xmlns="http://www.w3.org/2000/svg" xmlns:xlink="http://www.w3.org/1999/xlink" width="px" height="32px" viewBox="0 0 32 32" version="1.1">
<g id="surface1">
<path style=" stroke:none;fill-rule:nonzero;fill:rgb(0%,0%,0%);fill-opacity:1;" d="M 29 16 C 29 8.820312 23.179688 3 16 3 C 8.820312 3 3 8.820312 3 16 C 3 23.179688 8.820312 29 16 29 C 23.179688 29 29 23.179688 29 16 M 0 16 C 0 7.164062 7.164062 0 16 0 C 24.835938 0 32 7.164062 32 16 C 32 24.835938 24.835938 32 16 32 C 7.164062 32 0 24.835938 0 16 M 12 10 L 20 10 C 21.105469 10 22 10.894531 22 12 L 22 20 C 22 21.105469 21.105469 22 20 22 L 12 22 C 10.894531 22 10 21.105469 10 20 L 10 12 C 10 10.894531 10.894531 10 12 10 "/>
</g>
</svg>

<svg xmlns="http://www.w3.org/2000/svg" viewBox="0 0 32 32"><path d="M29 16a13 13 0 1 0-26 0 13 13 0 0 0 26 0M0 16a16 16 0 1 1 32 0 16 16 0 0 1-32 0m12-6h8a2 2 0 0 1 2 2v8a2 2 0 0 1-2 2h-8a2 2 0 0 1-2-2v-8c0-1.1.9-2 2-2"/></svg>
